X:1
T:Left Hand Pattern: 1+8 -> 8 -> 1
C:zhiming@vmiis.com
M:4/4
L:1/4
Q:1/4=120
K:C
V:1
"①"eefg|"⑤"gfed|"①"ccde|"⑤"e>dd2|
"①"eefg|"⑤"gfed|"①"ccde|"⑤"d>c"①"c2|
V:2 celf=bass
[C,C]2CC,|[G,,G,]2G,G,,|[C,C]2CC,|[G,,G,]2G,G,,|
[C,C]2CC,|[G,,G,]2G,G,,|[C,C]2CC,|[G,,G,]2[C,C]2|